src/images/why-we-5.svg

<svg width="64" height="48" viewBox="0 0 64 48" fill="none" xmlns="http://www.w3.org/2000/svg">
<rect y="26" width="31.113" height="31.113" transform="rotate(-45 0 26)" fill="#EAF7DE"/>
<path d="M29.865 35.42C27.835 35.42 26.0267 34.9183 24.44 33.915C22.8533 32.9117 21.605 31.465 20.695 29.575C19.8083 27.6617 19.365 25.3867 19.365 22.75C19.365 20.1133 19.8083 17.85 20.695 15.96C21.605 14.0467 22.8533 12.5883 24.44 11.585C26.0267 10.5817 27.835 10.08 29.865 10.08C31.895 10.08 33.7033 10.5817 35.29 11.585C36.8767 12.5883 38.1133 14.0467 39 15.96C39.91 17.85 40.365 20.1133 40.365 22.75C40.365 25.3867 39.91 27.6617 39 29.575C38.1133 31.465 36.8767 32.9117 35.29 33.915C33.7033 34.9183 31.895 35.42 29.865 35.42ZM29.865 30.625C31.3583 30.625 32.525 29.9833 33.365 28.7C34.2283 27.4167 34.66 25.4333 34.66 22.75C34.66 20.0667 34.2283 18.0833 33.365 16.8C32.525 15.5167 31.3583 14.875 29.865 14.875C28.395 14.875 27.2283 15.5167 26.365 16.8C25.525 18.0833 25.105 20.0667 25.105 22.75C25.105 25.4333 25.525 27.4167 26.365 28.7C27.2283 29.9833 28.395 30.625 29.865 30.625ZM47.0779 27.617C45.8666 27.617 44.8776 27.2183 44.1109 26.421C43.3442 25.6237 42.9609 24.535 42.9609 23.155C42.9609 22.2503 43.1372 21.4607 43.4899 20.786C43.8426 20.1113 44.3256 19.5977 44.9389 19.245C45.5676 18.877 46.2806 18.693 47.0779 18.693C48.3046 18.693 49.3012 19.0993 50.0679 19.912C50.8346 20.7093 51.2179 21.7903 51.2179 23.155C51.2179 24.535 50.8346 25.6237 50.0679 26.421C49.3012 27.2183 48.3046 27.617 47.0779 27.617ZM56.5999 18.9H59.9119L48.9179 35H45.6059L56.5999 18.9ZM47.0779 25.432C47.4919 25.432 47.8216 25.248 48.0669 24.88C48.3122 24.512 48.4349 23.937 48.4349 23.155C48.4349 22.373 48.3122 21.798 48.0669 21.43C47.8216 21.062 47.4919 20.878 47.0779 20.878C46.6792 20.878 46.3496 21.0697 46.0889 21.453C45.8436 21.821 45.7209 22.3883 45.7209 23.155C45.7209 23.9217 45.8436 24.4967 46.0889 24.88C46.3496 25.248 46.6792 25.432 47.0779 25.432ZM58.4399 35.207C57.2132 35.207 56.2166 34.8083 55.4499 34.011C54.6986 33.2137 54.3229 32.125 54.3229 30.745C54.3229 29.3803 54.7062 28.2993 55.4729 27.502C56.2396 26.6893 57.2286 26.283 58.4399 26.283C59.6666 26.283 60.6632 26.6893 61.4299 27.502C62.1966 28.2993 62.5799 29.3803 62.5799 30.745C62.5799 32.125 62.1966 33.2137 61.4299 34.011C60.6632 34.8083 59.6666 35.207 58.4399 35.207ZM58.4399 33.022C58.8539 33.022 59.1836 32.838 59.4289 32.47C59.6742 32.102 59.7969 31.527 59.7969 30.745C59.7969 29.963 59.6742 29.388 59.4289 29.02C59.1836 28.652 58.8539 28.468 58.4399 28.468C58.0259 28.468 57.6962 28.652 57.4509 29.02C57.2056 29.388 57.0829 29.963 57.0829 30.745C57.0829 31.527 57.2056 32.102 57.4509 32.47C57.6962 32.838 58.0259 33.022 58.4399 33.022Z" fill="#307FE2"/>
<circle cx="28" cy="38" r="10" fill="#93DA49"/>
<path d="M32.1862 33.7141L27.1861 39.0332L25.2425 36.9657L23.7143 38.5918L27.1862 42.2855L33.7143 35.3402L32.1862 33.7141Z" fill="white"/>
</svg>

<svg width="64" height="48" fill="none" xmlns="http://www.w3.org/2000/svg"><path fill="#EAF7DE" d="M0 26L22 4l22 22-22 22z"/><path d="M29.865 35.42c-2.03 0-3.838-.502-5.425-1.505-1.587-1.003-2.835-2.45-3.745-4.34-.887-1.913-1.33-4.188-1.33-6.825 0-2.637.443-4.9 1.33-6.79.91-1.913 2.158-3.372 3.745-4.375 1.587-1.003 3.395-1.505 5.425-1.505s3.838.502 5.425 1.505c1.587 1.003 2.823 2.462 3.71 4.375.91 1.89 1.365 4.153 1.365 6.79 0 2.637-.455 4.912-1.365 6.825-.887 1.89-2.123 3.337-3.71 4.34-1.587 1.003-3.395 1.505-5.425 1.505zm0-4.795c1.493 0 2.66-.642 3.5-1.925.863-1.283 1.295-3.267 1.295-5.95 0-2.683-.432-4.667-1.295-5.95-.84-1.283-2.007-1.925-3.5-1.925-1.47 0-2.637.642-3.5 1.925-.84 1.283-1.26 3.267-1.26 5.95 0 2.683.42 4.667 1.26 5.95.863 1.283 2.03 1.925 3.5 1.925zm17.213-3.008c-1.211 0-2.2-.399-2.967-1.196-.767-.797-1.15-1.886-1.15-3.266 0-.905.176-1.694.529-2.369.353-.675.836-1.188 1.449-1.541.629-.368 1.342-.552 2.139-.552 1.227 0 2.223.406 2.99 1.219.767.797 1.15 1.878 1.15 3.243 0 1.38-.383 2.469-1.15 3.266-.767.797-1.763 1.196-2.99 1.196zM56.6 18.9h3.312L48.918 35h-3.312L56.6 18.9zm-9.522 6.532c.414 0 .744-.184.989-.552.245-.368.368-.943.368-1.725 0-.782-.123-1.357-.368-1.725-.245-.368-.575-.552-.99-.552-.398 0-.727.192-.988.575-.245.368-.368.935-.368 1.702 0 .767.123 1.342.368 1.725.26.368.59.552.989.552zm11.362 9.775c-1.227 0-2.223-.399-2.99-1.196-.751-.797-1.127-1.886-1.127-3.266 0-1.365.383-2.446 1.15-3.243.767-.813 1.756-1.219 2.967-1.219 1.227 0 2.223.406 2.99 1.219.767.797 1.15 1.878 1.15 3.243 0 1.38-.383 2.469-1.15 3.266-.767.797-1.763 1.196-2.99 1.196zm0-2.185c.414 0 .744-.184.989-.552.245-.368.368-.943.368-1.725 0-.782-.123-1.357-.368-1.725-.245-.368-.575-.552-.99-.552-.413 0-.743.184-.988.552-.245.368-.368.943-.368 1.725 0 .782.123 1.357.368 1.725.245.368.575.552.989.552z" fill="#307FE2"/><circle cx="28" cy="38" r="10" fill="#93DA49"/><path d="M32.186 33.714l-5 5.32-1.944-2.068-1.528 1.626 3.472 3.694 6.528-6.946-1.528-1.626z" fill="#fff"/></svg>
